X:1668
T:Bob McQuillan's
C:Aly Bain
R:reel
D:Arcady
Z:id:hn-reel-425
M:C|
K:G
~B3c dcBA|GABG D2DB|c2cd edcB|AGFE D2dc|
~B3c dcBA|GABG D2ED|C2CD EDEG|1 FDEF G2GA:|2 FDEF G2Bc||
|:d2Bd gagf|eccB c2AB|cAAc ~a3g|fdd^c d2B=c|
d2Bd gagf|eccB cege|dBGB cAFG|1 AGGF G2Bc:|2 AGGF G2GA||


